src/assets/icons/screen.svg

<svg width="24" height="24" viewBox="0 0 24 24" fill="none" xmlns="http://www.w3.org/2000/svg">
<path d="M14.0002 14H10.0002M14.0002 14V17.2297C14.0002 19.1962 14.0002 20.1794 13.6273 20.5466C13.3472 20.8225 12.9536 20.9505 12.5647 20.8922C12.0472 20.8145 11.4688 20.0193 10.3122 18.429V18.429C10.1927 18.2646 10.133 18.1825 10.0914 18.092C10.0591 18.0217 10.0351 17.9478 10.0199 17.872C10.0002 17.7744 10.0002 17.6728 10.0002 17.4696V14M14.0002 14L15.5002 11.6429M10.0002 14L6.52109 8.53276C5.15174 6.38092 4.46706 5.305 4.72612 4.43139C4.80746 4.1571 4.9467 3.90346 5.13444 3.68758C5.73238 3 7.00768 3 9.55827 3H14.8398C17.0311 3 18.1267 3 18.6987 3.51923C19.0291 3.81928 19.2496 4.22093 19.3253 4.66085C19.4563 5.42211 18.8679 6.34677 17.691 8.1961V8.1961C17.6759 8.21981 17.6461 8.26665 17.6461 8.26665" stroke="black" stroke-width="1.5" stroke-linecap="round" stroke-linejoin="round"/>
</svg>

<svg width="24" height="24" fill="none" xmlns="http://www.w3.org/2000/svg"><path d="M14 14h-4m4 0v3.23c0 1.966 0 2.95-.373 3.317a1.25 1.25 0 0 1-1.062.345c-.518-.078-1.096-.873-2.253-2.463v0c-.12-.164-.179-.246-.22-.337a1 1 0 0 1-.072-.22c-.02-.098-.02-.2-.02-.402V14m4 0 1.5-2.357M10 14 6.521 8.533C5.151 6.38 4.467 5.305 4.726 4.43a2 2 0 0 1 .408-.743C5.732 3 7.008 3 9.558 3h5.282c2.191 0 3.287 0 3.859.52a2 2 0 0 1 .626 1.14c.131.762-.457 1.687-1.634 3.536v0l-.045.07" stroke="#000" stroke-width="1.5" stroke-linecap="round" stroke-linejoin="round"/></svg>
